icons/notebook-open.svg

<svg xmlns="http://www.w3.org/2000/svg" viewBox="0 0 24 24" fill="currentColor">
  <path d="M7 3.75C5.11421 3.75 3.75 5.11421 3.75 7v10c0 1.7858 1.46421 3.25 3.25 3.25h4.25V3.75H7Zm10 16.5h-4.25V3.75H17c1.7858 0 3.25 1.46421 3.25 3.25v10c0 1.7858-1.4642 3.25-3.25 3.25ZM2.25 7c0-2.71421 2.03579-4.75 4.75-4.75h10c2.6142 0 4.75 2.13579 4.75 4.75v10c0 2.6142-2.1358 4.75-4.75 4.75H7c-2.61421 0-4.75-2.1358-4.75-4.75V7Zm4.0498.25c-.41421 0-.75.33579-.75.75s.33579.75.75.75h2c.41422 0 .75-.33579.75-.75s-.33578-.75-.75-.75h-2Zm-.75 4.75c0-.4142.33579-.75.75-.75h2c.41422 0 .75.3358.75.75s-.33578.75-.75.75h-2c-.41421 0-.75-.3358-.75-.75Zm.75 3.25c-.41421 0-.75.3358-.75.75s.33579.75.75.75h2c.41422 0 .75-.3358.75-.75s-.33578-.75-.75-.75h-2Z"/>
</svg>

<svg width="24" height="24" viewBox="0 0 24 24" fill="none" xmlns="http://www.w3.org/2000/svg">
<path fill-rule="evenodd" clip-rule="evenodd" d="M7 3.75C5.11421 3.75 3.75 5.11421 3.75 7V17C3.75 18.7858 5.21421 20.25 7 20.25H11.25V3.75H7ZM17 20.25H12.75V3.75H17C18.7858 3.75 20.25 5.21421 20.25 7V17C20.25 18.7858 18.7858 20.25 17 20.25ZM2.25 7C2.25 4.28579 4.28579 2.25 7 2.25H17C19.6142 2.25 21.75 4.38579 21.75 7V17C21.75 19.6142 19.6142 21.75 17 21.75H7C4.38579 21.75 2.25 19.6142 2.25 17V7ZM6.2998 7.25C5.88559 7.25 5.5498 7.58579 5.5498 8C5.5498 8.41421 5.88559 8.75 6.2998 8.75H8.2998C8.71402 8.75 9.0498 8.41421 9.0498 8C9.0498 7.58579 8.71402 7.25 8.2998 7.25H6.2998ZM5.5498 12C5.5498 11.5858 5.88559 11.25 6.2998 11.25H8.2998C8.71402 11.25 9.0498 11.5858 9.0498 12C9.0498 12.4142 8.71402 12.75 8.2998 12.75H6.2998C5.88559 12.75 5.5498 12.4142 5.5498 12ZM6.2998 15.25C5.88559 15.25 5.5498 15.5858 5.5498 16C5.5498 16.4142 5.88559 16.75 6.2998 16.75H8.2998C8.71402 16.75 9.0498 16.4142 9.0498 16C9.0498 15.5858 8.71402 15.25 8.2998 15.25H6.2998Z" fill="black"/>
</svg>
